; generated by PrusaSlicer 2.5.0 on 2022-09-18 at 13:57:21 UTC

; 

; external perimeters extrusion width = 0.45mm
; perimeters extrusion width = 0.45mm
; infill extrusion width = 0.45mm
; solid infill extrusion width = 0.45mm
; top infill extrusion width = 0.40mm
; first layer extrusion width = 0.42mm

M73 P0 R15
M73 Q0 S15
M201 X1000 Y1000 Z200 E5000 ; sets maximum accelerations, mm/sec^2
M203 X200 Y200 Z12 E120 ; sets maximum feedrates, mm / sec
M204 P1250 R1250 T1250 ; sets acceleration (P, T) and retract acceleration (R), mm/sec^2
M205 X8.00 Y8.00 Z0.40 E4.50 ; sets the jerk limits, mm/sec
M205 S0 T0 ; sets the minimum extruding and travel feed rate, mm/sec
M107
;TYPE:Custom
M862.3 P "MK3S" ; printer model check
M862.1 P0.4 ; nozzle diameter check
M115 U3.10.1 ; tell printer latest fw version
G90 ; use absolute coordinates
M83 ; extruder relative mode
M104 S215 ; set extruder temp
M140 S60 ; set bed temp
M190 S60 ; wait for bed temp
M109 S215 ; wait for extruder temp
G28 W ; home all without mesh bed level
G80 ; mesh bed leveling
G1 Z0.2 F720
G1 Y-3 F1000 ; go outside print area
G92 E0
G1 X60 E9 F1000 ; intro line
G1 X100 E12.5 F1000 ; intro line
G92 E0
M221 S95

; Don't change E values below. Excessive value can damage the printer.
M907 E430 ; set extruder motor current
G21 ; set units to millimeters
G90 ; use absolute coordinates
M83 ; use relative distances for extrusion
M900 K0.05 ; Filament gcode LA 1.5
M900 K30 ; Filament gcode LA 1.0
M107
;LAYER_CHANGE
;Z:0.2
;HEIGHT:0.2
;BEFORE_LAYER_CHANGE
G92 E0.0
;0.2


G1 E-.8 F2100
G1 Z.4 F720
;AFTER_LAYER_CHANGE
;0.2
G1 X119.08 Y97.878 F10800
G1 Z.2 F720
G1 E.8 F2100
M204 S800
;TYPE:Skirt/Brim
;WIDTH:0.42
G1 F1200
G1 X120.181 Y96.759 E.04923
G1 X121.792 Y96.313 E.05241
G1 X128.208 Y96.313 E.20116
G1 X129.728 Y96.706 E.04923
G1 X130.92 Y97.878 E.05241
G1 X134.128 Y103.434 E.20116
G1 X134.547 Y104.947 E.04923
G1 X134.128 Y106.566 E.05241
G1 X130.92 Y112.122 E.20116
G1 X129.819 Y113.241 E.04923
G1 X128.208 Y113.687 E.05241
G1 X121.792 Y113.687 E.20116
M73 Q1 S15
G1 X120.272 Y113.294 E.04923
M73 P1 R14
G1 X119.08 Y112.122 E.05241
G1 X115.872 Y106.566 E.20116
G1 X115.453 Y105.053 E.04923
G1 X115.872 Y103.434 E.05241
G1 X119.05 Y97.93 E.19928
M204 S1000
G1 X119.377 Y98.119 F10800
M204 S800
G1 F1200
G1 X119.407 Y98.067 E.00188
G1 X120.456 Y97.036 E.04612
G1 X121.792 Y96.69 E.04328
G1 X128.208 Y96.69 E.20116
G1 X129.625 Y97.082 E.04612
M73 Q1 S14
G1 X130.593 Y98.067 E.04328
G1 X133.801 Y103.623 E.20116
G1 X134.17 Y105.047 E.04612
G1 X133.801 Y106.377 E.04328
G1 X130.593 Y111.933 E.20116
G1 X129.544 Y112.964 E.04612
G1 X128.208 Y113.31 E.04328
G1 X121.792 Y113.31 E.20116
G1 X120.375 Y112.918 E.04612
G1 X119.407 Y111.933 E.04328
G1 X116.199 Y106.377 E.20116
G1 X115.83 Y104.953 E.04612
G1 X116.199 Y103.623 E.04328
G1 X119.347 Y98.171 E.1974
M204 S1000
G1 X119.673 Y98.359 F10800
M204 S800
G1 F1200
G1 X119.733 Y98.255 E.00376
G1 X120.726 Y97.319 E.04278
G1 X121.792 Y97.067 E.03435
G1 X128.208 Y97.067 E.20116
G1 X129.515 Y97.458 E.04278
G1 X130.267 Y98.255 E.03435
G1 X133.474 Y103.811 E.20116
G1 X133.789 Y105.139 E.04278
G1 X133.474 Y106.189 E.03435
G1 X130.267 Y111.745 E.20116
G1 X129.274 Y112.681 E.04278
G1 X128.208 Y112.933 E.03435
G1 X121.792 Y112.933 E.20116
G1 X120.485 Y112.542 E.04278
G1 X119.733 Y111.745 E.03435
G1 X116.526 Y106.189 E.20116
G1 X116.211 Y104.861 E.04278
G1 X116.526 Y103.811 E.03435
G1 X119.643 Y98.411 E.19552
M204 S1000
; printing object thread-test.stl id:0 copy 0
;WIPE_START
G1 F8640
G1 X119.733 Y98.255 E-.04156
G1 X120.726 Y97.319 E-.31505
G1 X121.792 Y97.067 E-.25294
G1 X122.444 Y97.067 E-.15045
;WIPE_END
G1 E-.04 F2100
G1 Z.6 F720
G1 X122.247 Y100.231 F10800
G1 Z.2 F720
G1 E.8 F2100
M204 S800
;TYPE:Perimeter
;WIDTH:0.419999
G1 F1200
G1 X127.753 Y100.231 E.17267
G1 X130.507 Y105 E.17267
G1 X127.753 Y109.769 E.17267
G1 X122.247 Y109.769 E.17267
G1 X119.493 Y105 E.17267
G1 X122.217 Y100.283 E.17079
M204 S1000
G1 X122.029 Y99.854 F10800
M204 S800
;TYPE:External perimeter
G1 F1200
G1 X127.971 Y99.854 E.18632
G1 X130.942 Y105 E.18632
M73 Q2 S14
G1 X127.971 Y110.146 E.18632
M73 P2 R14
G1 X122.029 Y110.146 E.18632
G1 X119.058 Y105 E.18632
G1 X121.999 Y99.906 E.18444
M204 S1000
G1 X122.375 Y100.054 F10800
;WIPE_START
G1 F8640
G1 X125.29 Y99.877 E-.76
;WIPE_END
G1 E-.04 F2100
G1 Z.6 F720
G1 X128.767 Y102.212 F10800
G1 Z.2 F720
G1 E.8 F2100
M204 S800
;TYPE:Solid infill
;WIDTH:0.429156
G1 F1200
G1 X127.068 Y100.514 E.07715
G1 X126.522 Y100.514 E.01754
G1 X129.049 Y103.041 E.11479
G1 X129.796 Y104.333 E.04793
G1 X125.976 Y100.514 E.17349
G1 X125.43 Y100.514 E.01754
G1 X130.084 Y105.168 E.21138
G1 X129.884 Y105.514 E.01284
G1 X124.883 Y100.514 E.22711
G1 X124.337 Y100.514 E.01754
G1 X129.684 Y105.86 E.24284
G1 X129.484 Y106.207 E.01284
G1 X123.791 Y100.514 E.25856
G1 X123.245 Y100.514 E.01754
G1 X129.284 Y106.553 E.27429
G1 X129.084 Y106.899 E.01284
G1 X122.698 Y100.514 E.29002
G1 X122.41 Y100.514 E.00927
G1 X122.316 Y100.677 E.00606
G1 X128.884 Y107.245 E.29833
G1 X128.684 Y107.592 E.01284
G1 X122.116 Y101.023 E.29833
G1 X121.916 Y101.37 E.01284
G1 X128.484 Y107.938 E.29833
G1 X128.284 Y108.284 E.01284
G1 X121.716 Y101.716 E.29833
G1 X121.516 Y102.062 E.01284
G1 X128.084 Y108.631 E.29833
G1 X127.884 Y108.977 E.01284
G1 X121.316 Y102.408 E.29833
G1 X121.116 Y102.755 E.01284
G1 X127.684 Y109.323 E.29833
G1 X127.59 Y109.486 E.00605
G1 X127.301 Y109.486 E.00927
G1 X120.916 Y103.101 E.29002
G1 X120.716 Y103.447 E.01284
M73 Q3 S14
G1 X126.755 Y109.486 E.27429
G1 X126.209 Y109.486 E.01754
M73 P3 R14
G1 X120.516 Y103.794 E.25856
G1 X120.316 Y104.14 E.01284
G1 X125.663 Y109.486 E.24283
G1 X125.117 Y109.486 E.01754
G1 X120.116 Y104.486 E.2271
G1 X119.916 Y104.832 E.01284
G1 X124.57 Y109.486 E.21138
G1 X124.024 Y109.486 E.01754
G1 X120.205 Y105.667 E.17348
G1 X120.951 Y106.959 E.04793
G1 X123.478 Y109.486 E.11478
G1 X122.932 Y109.486 E.01754
G1 X121.233 Y107.788 E.07714
M204 S1000
; stop printing object thread-test.stl id:0 copy 0
M106 S84.15
;LAYER_CHANGE
;Z:0.35
;HEIGHT:0.15
;BEFORE_LAYER_CHANGE
G92 E0.0
;0.35


;WIPE_START
G1 F8640
G1 X122.932 Y109.486 E-.55459
G1 X123.478 Y109.486 E-.12612
G1 X123.235 Y109.244 E-.07929
;WIPE_END
G1 E-.04 F2100
G1 Z.6 F720
;AFTER_LAYER_CHANGE
;0.35
M104 S210 ; set temperature
G1 X123.235 Y113.687 F10800
G1 Z.35 F720
G1 E.8 F2100
;TYPE:Skirt/Brim
;WIDTH:0.42
G1 F1814
G1 X121.792 Y113.687 E.0349
G1 X120.272 Y113.294 E.03797
G1 X119.08 Y112.122 E.04043
G1 X115.872 Y106.566 E.15517
G1 X115.453 Y105.053 E.03797
G1 X115.872 Y103.434 E.04043
G1 X119.08 Y97.878 E.15517
G1 X120.181 Y96.759 E.03797
G1 X121.792 Y96.313 E.04043
G1 X128.208 Y96.313 E.15517
G1 X129.728 Y96.706 E.03797
G1 X130.92 Y97.878 E.04043
G1 X134.128 Y103.434 E.15517
G1 X134.547 Y104.947 E.03797
G1 X134.128 Y106.566 E.04043
G1 X130.92 Y112.122 E.15517
G1 X129.819 Y113.241 E.03797
G1 X128.208 Y113.687 E.04043
G1 X123.295 Y113.687 E.11882
G1 X123.295 Y113.31 F10800
G1 F1814
G1 X121.792 Y113.31 E.03635
G1 X120.375 Y112.918 E.03557
G1 X119.407 Y111.933 E.03338
G1 X116.199 Y106.377 E.15517
G1 X115.83 Y104.953 E.03557
G1 X116.199 Y103.623 E.03338
G1 X119.407 Y98.067 E.15517
G1 X120.456 Y97.036 E.03557
G1 X121.792 Y96.69 E.03338
G1 X128.208 Y96.69 E.15517
G1 X129.625 Y97.082 E.03557
G1 X130.593 Y98.067 E.03338
G1 X133.801 Y103.623 E.15517
G1 X134.17 Y105.047 E.03557
G1 X133.801 Y106.377 E.03338
G1 X130.593 Y111.933 E.15517
G1 X129.544 Y112.964 E.03557
G1 X128.208 Y113.31 E.03338
G1 X123.355 Y113.31 E.11736
G1 X123.355 Y112.933 F10800
G1 F1814
G1 X121.792 Y112.933 E.0378
G1 X120.485 Y112.542 E.033
G1 X119.733 Y111.745 E.02649
G1 X116.526 Y106.189 E.15517
G1 X116.211 Y104.861 E.033
G1 X116.526 Y103.811 E.02649
G1 X119.733 Y98.255 E.15517
G1 X120.726 Y97.319 E.033
G1 X121.792 Y97.067 E.02649
G1 X128.208 Y97.067 E.15517
G1 X129.515 Y97.458 E.033
G1 X130.267 Y98.255 E.02649
G1 X133.474 Y103.811 E.15517
G1 X133.789 Y105.139 E.033
G1 X133.474 Y106.189 E.02649
G1 X130.267 Y111.745 E.15517
G1 X129.274 Y112.681 E.033
G1 X128.208 Y112.933 E.02649
G1 X123.415 Y112.933 E.11591
; printing object thread-test.stl id:0 copy 0
;WIPE_START
G1 F8640
M73 Q4 S14
G1 X121.792 Y112.933 E-.37475
G1 X120.485 Y112.542 E-.31505
G1 X120.276 Y112.321 E-.0702
;WIPE_END
G1 E-.04 F2100
G1 Z.75 F720
G1 X122.163 Y109.913 F10800
G1 Z.35 F720
M73 P4 R14
G1 E.8 F2100
M204 S800
;TYPE:Perimeter
;WIDTH:0.449999
G1 F1500
G1 X119.326 Y105 E.14783
G1 X122.163 Y100.087 E.14783
G1 X127.837 Y100.087 E.14783
G1 X130.674 Y105 E.14783
G1 X127.837 Y109.913 E.14783
G1 X122.223 Y109.913 E.14627
M204 S1000
G1 X121.922 Y110.331 F10800
M204 S800
;TYPE:External perimeter
G1 F1500
G1 X118.844 Y105 E.1604
G1 X121.922 Y99.669 E.1604
G1 X128.078 Y99.669 E.1604
G1 X131.156 Y105 E.1604
G1 X128.078 Y110.331 E.1604
G1 X121.982 Y110.331 E.15884
M204 S1000
G1 X121.922 Y109.931 F10800
;WIPE_START
G1 F8640
G1 X120.312 Y107.495 E-.76
;WIPE_END
G1 E-.04 F2100
G1 Z.75 F720
G1 X128.963 Y107.712 F10800
G1 Z.35 F720
G1 E.8 F2100
;TYPE:Solid infill
;WIDTH:0.461288
G1 F1814
G1 X127.075 Y109.6 E.07144
G1 X126.468 Y109.6 E.01624
G1 X129.278 Y106.79 E.10634
G1 X130.107 Y105.354 E.04437
G1 X125.861 Y109.6 E.16068
G1 X125.255 Y109.6 E.01624
G1 X130.144 Y104.71 E.18505
G1 X129.922 Y104.325 E.01189
G1 X124.648 Y109.6 E.19961
G1 X124.041 Y109.6 E.01624
G1 X129.7 Y103.941 E.21417
G1 X129.478 Y103.556 E.01189
G1 X123.434 Y109.6 E.22873
G1 X122.827 Y109.6 E.01624
G1 X129.256 Y103.171 E.24329
G1 X129.034 Y102.787 E.01189
G1 X122.299 Y109.522 E.25488
G1 X122.077 Y109.137 E.01189
G1 X128.812 Y102.402 E.25488
G1 X128.59 Y102.017 E.01189
G1 X121.855 Y108.752 E.25488
G1 X121.632 Y108.367 E.01189
G1 X128.367 Y101.632 E.25488
G1 X128.145 Y101.248 E.01189
G1 X121.41 Y107.983 E.25488
G1 X121.188 Y107.598 E.01189
G1 X127.923 Y100.863 E.25488
G1 X127.701 Y100.478 E.01189
G1 X120.966 Y107.213 E.25488
G1 X120.744 Y106.829 E.01189
G1 X127.173 Y100.4 E.24329
G1 X126.566 Y100.4 E.01624
G1 X120.522 Y106.444 E.22873
G1 X120.3 Y106.059 E.01189
M73 Q5 S14
G1 X125.959 Y100.4 E.21417
G1 X125.352 Y100.4 E.01624
M73 P5 R14
G1 X120.078 Y105.674 E.19961
G1 X119.856 Y105.29 E.01189
G1 X124.745 Y100.4 E.18505
G1 X124.139 Y100.4 E.01624
G1 X119.893 Y104.645 E.16067
G1 X120.722 Y103.21 E.04437
G1 X123.532 Y100.4 E.10633
G1 X122.925 Y100.4 E.01624
G1 X121.037 Y102.288 E.07143
; stop printing object thread-test.stl id:0 copy 0
M106 S170.85
;LAYER_CHANGE
;Z:0.5
;HEIGHT:0.15
;BEFORE_LAYER_CHANGE
G92 E0.0
;0.5


;WIPE_START
G1 F8640
G1 X122.925 Y100.4 E-.61638
G1 X123.532 Y100.4 E-.14012
G1 X123.521 Y100.411 E-.00349
;WIPE_END
G1 E-.04 F2100
G1 Z.75 F720
;AFTER_LAYER_CHANGE
;0.5
G1 X123.521 Y96.313 F10800
G1 Z.5 F720
G1 E.8 F2100
;TYPE:Skirt/Brim
;WIDTH:0.42
G1 F1811
G1 X128.208 Y96.313 E.11335
G1 X129.728 Y96.706 E.03797
G1 X130.92 Y97.878 E.04043
G1 X134.128 Y103.434 E.15517
G1 X134.547 Y104.947 E.03797
G1 X134.128 Y106.566 E.04043
G1 X130.92 Y112.122 E.15517
G1 X129.819 Y113.241 E.03797
G1 X128.208 Y113.687 E.04043
G1 X121.792 Y113.687 E.15517
G1 X120.272 Y113.294 E.03797
G1 X119.08 Y112.122 E.04043
G1 X115.872 Y106.566 E.15517
G1 X115.453 Y105.053 E.03797
G1 X115.872 Y103.434 E.04043
G1 X119.08 Y97.878 E.15517
G1 X120.181 Y96.759 E.03797
G1 X121.792 Y96.313 E.04043
G1 X123.461 Y96.313 E.04036
G1 X123.461 Y96.69 F10800
G1 F1811
G1 X128.208 Y96.69 E.1148
G1 X129.625 Y97.082 E.03557
G1 X130.593 Y98.067 E.03338
G1 X133.801 Y103.623 E.15517
G1 X134.17 Y105.047 E.03557
G1 X133.801 Y106.377 E.03338
G1 X130.593 Y111.933 E.15517
G1 X129.544 Y112.964 E.03557
G1 X128.208 Y113.31 E.03338
G1 X121.792 Y113.31 E.15517
G1 X120.375 Y112.918 E.03557
G1 X119.407 Y111.933 E.03338
G1 X116.199 Y106.377 E.15517
G1 X115.83 Y104.953 E.03557
G1 X116.199 Y103.623 E.03338
G1 X119.407 Y98.067 E.15517
G1 X120.456 Y97.036 E.03557
G1 X121.792 Y96.69 E.03338
G1 X123.401 Y96.69 E.03891
G1 X123.401 Y97.067 F10800
G1 F1811
G1 X128.208 Y97.067 E.11626
G1 X129.515 Y97.458 E.033
G1 X130.267 Y98.255 E.02649
G1 X133.474 Y103.811 E.15517
G1 X133.789 Y105.139 E.033
G1 X133.474 Y106.189 E.02649
G1 X130.267 Y111.745 E.15517
G1 X129.274 Y112.681 E.033
G1 X128.208 Y112.933 E.02649
G1 X121.792 Y112.933 E.15517
G1 X120.485 Y112.542 E.033
G1 X119.733 Y111.745 E.02649
G1 X116.526 Y106.189 E.15517
G1 X116.211 Y104.861 E.033
G1 X116.526 Y103.811 E.02649
G1 X119.733 Y98.255 E.15517
G1 X120.726 Y97.319 E.033
G1 X121.792 Y97.067 E.02649
G1 X123.341 Y97.067 E.03746
; printing object thread-test.stl id:0 copy 0
;WIPE_START
G1 F8640
G1 X126.632 Y97.067 E-.76
;WIPE_END
G1 E-.04 F2100
G1 Z.9 F720
G1 X122.163 Y100.087 F10800
G1 Z.5 F720
G1 E.8 F2100
M204 S800
;TYPE:Perimeter
;WIDTH:0.449999
G1 F1500
G1 X127.837 Y100.087 E.14783
G1 X130.674 Y105 E.14783
G1 X127.837 Y109.913 E.14783
G1 X122.163 Y109.913 E.14783
G1 X119.326 Y105 E.14783
G1 X122.133 Y100.139 E.14627
M204 S1000
M73 Q6 S14
G1 X121.922 Y99.669 F10800
M204 S800
;TYPE:External perimeter
M73 P6 R14
G1 F1500
G1 X128.078 Y99.669 E.1604
G1 X131.156 Y105 E.1604
G1 X128.078 Y110.331 E.1604
G1 X121.922 Y110.331 E.1604
G1 X118.844 Y105 E.1604
G1 X121.892 Y99.721 E.15884
M204 S1000
G1 X122.268 Y99.869 F10800
;WIPE_START
G1 F8640
G1 X125.183 Y99.693 E-.76
;WIPE_END
G1 E-.04 F2100
G1 Z.9 F720
G1 X128.963 Y102.288 F10800
G1 Z.5 F720
G1 E.8 F2100
;TYPE:Solid infill
;WIDTH:0.461288
G1 F1811
G1 X127.075 Y100.4 E.07144
G1 X126.468 Y100.4 E.01624
G1 X129.278 Y103.21 E.10634
G1 X130.107 Y104.646 E.04437
G1 X125.861 Y100.4 E.16068
G1 X125.255 Y100.4 E.01624
G1 X130.144 Y105.29 E.18505
G1 X129.922 Y105.675 E.01189
G1 X124.648 Y100.4 E.19961
G1 X124.041 Y100.4 E.01624
G1 X129.7 Y106.059 E.21417
G1 X129.478 Y106.444 E.01189
G1 X123.434 Y100.4 E.22873
G1 X122.827 Y100.4 E.01624
G1 X129.256 Y106.829 E.24329
G1 X129.034 Y107.213 E.01189
G1 X122.299 Y100.478 E.25488
G1 X122.077 Y100.863 E.01189
G1 X128.812 Y107.598 E.25488
G1 X128.59 Y107.983 E.01189
G1 X121.855 Y101.248 E.25488
G1 X121.632 Y101.633 E.01189
G1 X128.367 Y108.368 E.25488
G1 X128.145 Y108.752 E.01189
G1 X121.41 Y102.017 E.25488
G1 X121.188 Y102.402 E.01189
G1 X127.923 Y109.137 E.25488
G1 X127.701 Y109.522 E.01189
G1 X120.966 Y102.787 E.25488
G1 X120.744 Y103.171 E.01189
G1 X127.173 Y109.6 E.24329
G1 X126.566 Y109.6 E.01624
G1 X120.522 Y103.556 E.22873
G1 X120.3 Y103.941 E.01189
G1 X125.959 Y109.6 E.21417
G1 X125.352 Y109.6 E.01624
G1 X120.078 Y104.326 E.19961
G1 X119.856 Y104.71 E.01189
G1 X124.745 Y109.6 E.18505
G1 X124.139 Y109.6 E.01624
G1 X119.893 Y105.355 E.16067
G1 X120.722 Y106.79 E.04437
G1 X123.532 Y109.6 E.10633
G1 X122.925 Y109.6 E.01624
G1 X121.037 Y107.712 E.07143
; stop printing object thread-test.stl id:0 copy 0
M106 S255
;LAYER_CHANGE
;Z:0.65
;HEIGHT:0.15
;BEFORE_LAYER_CHANGE
G92 E0.0
;0.65


;WIPE_START
G1 F8640
M73 Q7 S14
G1 X122.925 Y109.6 E-.61638
G1 X123.532 Y109.6 E-.14012
G1 X123.521 Y109.589 E-.0035
;WIPE_END
G1 E-.04 F2100
G1 Z.9 F720
;AFTER_LAYER_CHANGE
;0.65
; printing object thread-test.stl id:0 copy 0
G1 X122.163 Y109.913 F10800
G1 Z.65 F720
G1 E.8 F2100
M204 S800
;TYPE:Perimeter
;WIDTH:0.449999
M73 P7 R14
G1 F1051
G1 X119.326 Y105 E.14783
G1 X122.163 Y100.087 E.14783
G1 X127.837 Y100.087 E.14783
G1 X130.674 Y105 E.14783
G1 X127.837 Y109.913 E.14783
G1 X122.223 Y109.913 E.14627
M204 S1000
G1 X121.922 Y110.331 F10800
M204 S800
;TYPE:External perimeter
G1 F1051
G1 X118.844 Y105 E.1604
G1 X121.922 Y99.669 E.1604
G1 X128.078 Y99.669 E.1604
G1 X131.156 Y105 E.1604
G1 X128.078 Y110.331 E.1604
G1 X121.982 Y110.331 E.15884
M204 S1000
G1 X121.922 Y109.931 F10800
;WIPE_START
G1 F8640
G1 X120.312 Y107.495 E-.76
;WIPE_END
G1 E-.04 F2100
G1 Z1.05 F720
G1 X128.963 Y107.712 F10800
G1 Z.65 F720
G1 E.8 F2100
;TYPE:Solid infill
;WIDTH:0.461288
G1 F1051
G1 X127.075 Y109.6 E.07144
G1 X126.468 Y109.6 E.01624
G1 X129.278 Y106.79 E.10634
G1 X130.107 Y105.354 E.04437
G1 X125.861 Y109.6 E.16068
G1 X125.255 Y109.6 E.01624
M73 P7 R13
G1 X130.144 Y104.71 E.18505
G1 X129.922 Y104.325 E.01189
G1 X124.648 Y109.6 E.19961
G1 X124.041 Y109.6 E.01624
G1 X129.7 Y103.941 E.21417
G1 X129.478 Y103.556 E.01189
M73 Q7 S13
G1 X123.434 Y109.6 E.22873
