; generated by PrusaSlicer 2.5.0 on 2022-09-19 at 00:25:22 UTC

; 

; external perimeters extrusion width = 0.45mm
; perimeters extrusion width = 0.45mm
; infill extrusion width = 0.45mm
; solid infill extrusion width = 0.45mm
; top infill extrusion width = 0.40mm
; support material extrusion width = 0.35mm
; first layer extrusion width = 0.42mm

M73 P0 R77
M73 Q0 S77
M201 X1000 Y1000 Z200 E5000 ; sets maximum accelerations, mm/sec^2
M203 X200 Y200 Z12 E120 ; sets maximum feedrates, mm / sec
M204 P1250 R1250 T1250 ; sets acceleration (P, T) and retract acceleration (R), mm/sec^2
M205 X8.00 Y8.00 Z0.40 E4.50 ; sets the jerk limits, mm/sec
M205 S0 T0 ; sets the minimum extruding and travel feed rate, mm/sec
M107
;TYPE:Custom
M862.3 P "MK3S" ; printer model check
M862.1 P0.4 ; nozzle diameter check
M115 U3.10.1 ; tell printer latest fw version
G90 ; use absolute coordinates
M83 ; extruder relative mode
M104 S215 ; set extruder temp
M140 S60 ; set bed temp
M190 S60 ; wait for bed temp
M109 S215 ; wait for extruder temp
G28 W ; home all without mesh bed level
G80 ; mesh bed leveling
G1 Z0.2 F720
G1 Y-3 F1000 ; go outside print area
G92 E0
G1 X60 E9 F1000 ; intro line
G1 X100 E12.5 F1000 ; intro line
G92 E0
M221 S95

; Don't change E values below. Excessive value can damage the printer.
M907 E430 ; set extruder motor current
G21 ; set units to millimeters
G90 ; use absolute coordinates
M83 ; use relative distances for extrusion
M900 K0.05 ; Filament gcode LA 1.5
M900 K30 ; Filament gcode LA 1.0
M107
;LAYER_CHANGE
;Z:0.2
;HEIGHT:0.2
;BEFORE_LAYER_CHANGE
G92 E0.0
;0.2


G1 E-.8 F2100
M73 P0 R76
G1 Z.4 F720
;AFTER_LAYER_CHANGE
;0.2
G1 X106.127 Y93.113 F10800
G1 Z.2 F720
G1 E.8 F2100
M204 S800
;TYPE:Skirt/Brim
;WIDTH:0.42
G1 F1200
G1 X108.456 Y90.784 E.10325
G1 X110.403 Y89.978 E.06609
G1 X139.597 Y89.978 E.91535
G1 X141.544 Y90.784 E.06609
G1 X143.873 Y93.113 E.10325
G1 X144.68 Y95.06 E.06609
G1 X144.68 Y114.94 E.62331
G1 X143.873 Y116.887 E.06609
G1 X141.544 Y119.216 E.10325
G1 X139.597 Y120.023 E.06609
G1 X110.403 Y120.023 E.91535
G1 X108.456 Y119.216 E.06609
G1 X106.127 Y116.887 E.10325
G1 X105.32 Y114.94 E.06609
G1 X105.32 Y95.06 E.62331
G1 X106.104 Y93.168 E.06421
M204 S1000
G1 X106.394 Y93.379 F10800
M204 S800
G1 F1200
G1 X108.722 Y91.051 E.10325
G1 X110.403 Y90.355 E.05704
G1 X139.597 Y90.355 E.91535
G1 X141.278 Y91.051 E.05704
M73 Q0 S76
G1 X143.606 Y93.379 E.10325
G1 X144.303 Y95.06 E.05704
G1 X144.303 Y114.94 E.62331
G1 X143.606 Y116.621 E.05704
G1 X141.278 Y118.949 E.10325
G1 X139.597 Y119.645 E.05704
G1 X110.403 Y119.645 E.91535
G1 X108.722 Y118.949 E.05704
G1 X106.394 Y116.621 E.10325
G1 X105.698 Y114.94 E.05704
G1 X105.698 Y95.06 E.62331
G1 X106.371 Y93.435 E.05516
M204 S1000
; printing object tof-sensor-mount-Body.stl id:0 copy 0
;WIPE_START
G1 F8640
G1 X108.682 Y91.091 E-.76
;WIPE_END
G1 E-.04 F2100
G1 Z.6 F720
G1 X115.058 Y98.232 F10800
G1 Z.2 F720
G1 E.8 F2100
M204 S800
;TYPE:Support material
G1 F1200
G1 X115.209 Y98.259 E.00481
G1 X115.351 Y98.315 E.00481
G1 X115.48 Y98.398 E.00481
G1 X115.59 Y98.505 E.00481
G1 X115.676 Y98.632 E.00481
G1 X115.736 Y98.773 E.00481
G1 X115.769 Y99.038 E.00838
G1 X115.746 Y99.19 E.00481
G1 X115.694 Y99.334 E.00481
G1 X115.614 Y99.465 E.00481
G1 X115.509 Y99.577 E.00481
G1 X115.385 Y99.667 E.00481
G1 X115.245 Y99.73 E.00481
G1 X114.981 Y99.77 E.00838
G1 X114.829 Y99.751 E.00481
G1 X114.683 Y99.702 E.00481
G1 X114.462 Y99.551 E.00838
G1 X114.364 Y99.434 E.00481
G1 X114.291 Y99.299 E.00481
G1 X114.245 Y99.153 E.00481
G1 X114.23 Y99 E.00481
G1 X114.245 Y98.847 E.00481
G1 X114.291 Y98.701 E.00481
G1 X114.364 Y98.566 E.00481
G1 X114.462 Y98.449 E.00481
G1 X114.582 Y98.353 E.00481
G1 X114.719 Y98.283 E.00481
G1 X114.866 Y98.242 E.00481
G1 X115.001 Y98.23 E.00424
M204 S1000
G1 X115.364 Y99.477 F10800
M204 S800
G1 F1200
G1 X115.364 Y98.77 E.02218
G1 X115.285 Y98.677 E.00381
G1 X115.177 Y98.608 E.00402
G1 X115.053 Y98.573 E.00402
G1 X114.945 Y98.573 E.00342
G1 X114.945 Y99.597 E.03211
M204 S1000
;WIPE_START
G1 F8640
G1 X114.945 Y98.573 E-.23647
G1 X115.053 Y98.573 E-.02516
G1 X115.177 Y98.608 E-.02963
G1 X115.285 Y98.677 E-.02963
G1 X115.364 Y98.77 E-.02805
G1 X115.364 Y99.477 E-.16334
;WIPE_END
G1 E-.28773 F2100
G1 Z.6 F720
G1 X115.058 Y110.232 F10800
G1 Z.2 F720
G1 E.8 F2100
M204 S800
G1 F1200
G1 X115.209 Y110.259 E.00481
G1 X115.351 Y110.315 E.00481
G1 X115.48 Y110.398 E.00481
G1 X115.59 Y110.505 E.00481
G1 X115.676 Y110.632 E.00481
G1 X115.736 Y110.773 E.00481
G1 X115.769 Y111.038 E.00838
G1 X115.746 Y111.19 E.00481
G1 X115.694 Y111.334 E.00481
G1 X115.538 Y111.551 E.00838
G1 X115.418 Y111.647 E.00481
G1 X115.281 Y111.717 E.00481
G1 X115.134 Y111.758 E.00481
G1 X114.981 Y111.77 E.00481
G1 X114.719 Y111.717 E.00838
G1 X114.582 Y111.647 E.00481
G1 X114.462 Y111.551 E.00481
G1 X114.364 Y111.434 E.00481
G1 X114.291 Y111.299 E.00481
G1 X114.245 Y111.153 E.00481
G1 X114.23 Y111 E.00481
G1 X114.245 Y110.847 E.00481
G1 X114.291 Y110.701 E.00481
G1 X114.364 Y110.566 E.00481
G1 X114.462 Y110.449 E.00481
G1 X114.582 Y110.353 E.00481
G1 X114.719 Y110.283 E.00481
G1 X114.866 Y110.242 E.00481
G1 X115.001 Y110.23 E.00424
M204 S1000
G1 X115.364 Y111.477 F10800
M204 S800
G1 F1200
G1 X115.364 Y110.77 E.02218
G1 X115.285 Y110.677 E.00381
G1 X115.177 Y110.608 E.00402
G1 X115.053 Y110.573 E.00402
G1 X114.945 Y110.573 E.00342
G1 X114.945 Y111.597 E.03211
M204 S1000
;WIPE_START
G1 F8640
G1 X114.945 Y110.573 E-.23647
G1 X115.053 Y110.573 E-.02516
G1 X115.177 Y110.608 E-.02963
G1 X115.285 Y110.677 E-.02963
G1 X115.364 Y110.77 E-.02805
G1 X115.364 Y111.477 E-.16334
;WIPE_END
G1 E-.28773 F2100
G1 Z.6 F720
G1 X135.058 Y110.232 F10800
G1 Z.2 F720
G1 E.8 F2100
M204 S800
G1 F1200
G1 X135.209 Y110.259 E.00481
G1 X135.351 Y110.315 E.00481
G1 X135.48 Y110.398 E.00481
G1 X135.59 Y110.505 E.00481
G1 X135.676 Y110.632 E.00481
G1 X135.736 Y110.773 E.00481
G1 X135.769 Y111.038 E.00838
G1 X135.746 Y111.19 E.00481
G1 X135.694 Y111.334 E.00481
G1 X135.538 Y111.551 E.00838
G1 X135.418 Y111.647 E.00481
G1 X135.281 Y111.717 E.00481
G1 X135.134 Y111.758 E.00481
G1 X134.981 Y111.77 E.00481
G1 X134.719 Y111.717 E.00838
G1 X134.582 Y111.647 E.00481
G1 X134.462 Y111.551 E.00481
G1 X134.364 Y111.434 E.00481
G1 X134.291 Y111.299 E.00481
G1 X134.245 Y111.153 E.00481
G1 X134.23 Y111 E.00481
G1 X134.245 Y110.847 E.00481
G1 X134.291 Y110.701 E.00481
G1 X134.364 Y110.566 E.00481
G1 X134.462 Y110.449 E.00481
G1 X134.582 Y110.353 E.00481
G1 X134.719 Y110.283 E.00481
G1 X134.866 Y110.242 E.00481
G1 X135.001 Y110.23 E.00424
M204 S1000
G1 X135.055 Y111.597 F10800
M204 S800
G1 F1200
G1 X135.055 Y110.573 E.03211
G1 X134.947 Y110.573 E.00342
G1 X134.823 Y110.608 E.00402
G1 X134.715 Y110.677 E.00402
G1 X134.636 Y110.77 E.00381
G1 X134.636 Y111.477 E.02218
M204 S1000
;WIPE_START
G1 F8640
G1 X134.636 Y110.77 E-.16334
G1 X134.715 Y110.677 E-.02805
G1 X134.823 Y110.608 E-.02962
G1 X134.947 Y110.573 E-.02963
G1 X135.055 Y110.573 E-.02515
G1 X135.055 Y111.597 E-.23647
;WIPE_END
G1 E-.28773 F2100
G1 Z.6 F720
G1 X135.058 Y98.232 F10800
G1 Z.2 F720
G1 E.8 F2100
M204 S800
G1 F1200
G1 X135.209 Y98.259 E.00481
G1 X135.351 Y98.315 E.00481
G1 X135.48 Y98.398 E.00481
G1 X135.59 Y98.505 E.00481
G1 X135.676 Y98.632 E.00481
G1 X135.736 Y98.773 E.00481
G1 X135.769 Y99.038 E.00838
G1 X135.746 Y99.19 E.00481
G1 X135.694 Y99.334 E.00481
G1 X135.614 Y99.465 E.00481
G1 X135.509 Y99.577 E.00481
G1 X135.385 Y99.667 E.00481
G1 X135.245 Y99.73 E.00481
G1 X134.981 Y99.77 E.00838
G1 X134.829 Y99.751 E.00481
G1 X134.683 Y99.702 E.00481
G1 X134.462 Y99.551 E.00838
G1 X134.364 Y99.434 E.00481
G1 X134.291 Y99.299 E.00481
G1 X134.245 Y99.153 E.00481
G1 X134.23 Y99 E.00481
G1 X134.245 Y98.847 E.00481
G1 X134.291 Y98.701 E.00481
G1 X134.364 Y98.566 E.00481
G1 X134.462 Y98.449 E.00481
G1 X134.582 Y98.353 E.00481
G1 X134.719 Y98.283 E.00481
G1 X134.866 Y98.242 E.00481
G1 X135.001 Y98.23 E.00424
M204 S1000
G1 X135.055 Y99.597 F10800
M204 S800
G1 F1200
G1 X135.055 Y98.573 E.03211
G1 X134.947 Y98.573 E.00342
G1 X134.823 Y98.608 E.00402
G1 X134.715 Y98.677 E.00402
G1 X134.636 Y98.77 E.00381
G1 X134.636 Y99.477 E.02218
M204 S1000
;WIPE_START
G1 F8640
G1 X134.636 Y98.77 E-.16334
G1 X134.715 Y98.677 E-.02805
G1 X134.823 Y98.608 E-.02962
G1 X134.947 Y98.573 E-.02963
G1 X135.055 Y98.573 E-.02515
G1 X135.055 Y99.597 E-.23647
;WIPE_END
G1 E-.28773 F2100
G1 Z.6 F720
G1 X139.597 Y95.06 F10800
G1 Z.2 F720
G1 E.8 F2100
M204 S800
G1 F1200
G1 X141.925 Y95.06 E.07301
G1 X141.925 Y114.94 E.62331
G1 X139.597 Y114.94 E.07301
G1 X139.597 Y117.268 E.07301
G1 X110.403 Y117.268 E.91535
G1 X110.403 Y114.94 E.07301
G1 X108.075 Y114.94 E.07301
G1 X108.075 Y95.06 E.62331
G1 X110.403 Y95.06 E.07301
G1 X110.403 Y92.732 E.07301
G1 X139.597 Y92.732 E.91535
G1 X139.597 Y95.004 E.07124
M204 S1000
;WIPE_START
G1 F8640
G1 X139.597 Y92.732 E-.52461
G1 X138.577 Y92.732 E-.23539
;WIPE_END
G1 E-.04 F2100
G1 Z.6 F720
G1 X114.944 Y108.521 F10800
G1 Z.2 F720
G1 E.8 F2100
M204 S800
G1 F1200
G1 X114.454 Y108.581 E.01548
G1 X113.985 Y108.737 E.01548
G1 X113.557 Y108.983 E.01548
G1 X113.256 Y109.237 E.01234
G1 X112.948 Y109.608 E.01514
G1 X112.712 Y110.042 E.01549
G1 X112.568 Y110.514 E.01548
G1 X112.52 Y111.006 E.01548
G1 X112.57 Y111.496 E.01544
G1 X112.716 Y111.966 E.01544
G1 X112.952 Y112.398 E.01544
G1 X113.268 Y112.775 E.01544
G1 X113.653 Y113.083 E.01544
G1 X114.091 Y113.308 E.01544
G1 X114.565 Y113.442 E.01544
G1 X115.05 Y113.479 E.01525
G1 X115.441 Y113.44 E.01232
G1 X115.915 Y113.305 E.01547
G1 X116.347 Y113.083 E.01521
G1 X116.547 Y112.939 E.00773
G1 X116.738 Y112.769 E.00801
G1 X117.048 Y112.398 E.01516
G1 X117.284 Y111.966 E.01544
G1 X117.43 Y111.496 E.01544
G1 X117.467 Y111.252 E.00773
G1 X117.48 Y110.994 E.0081
G1 X117.43 Y110.503 E.01549
G1 X117.283 Y110.031 E.01548
G1 X117.046 Y109.598 E.01548
G1 X116.736 Y109.229 E.01511
G1 X116.351 Y108.92 E.01548
G1 X115.912 Y108.694 E.01549
G1 X115.437 Y108.559 E.01548
G1 X115.001 Y108.521 E.01372
M204 S1000
G1 X134.946 Y108.521 F10800
M204 S800
G1 F1200
G1 X134.69 Y108.539 E.00806
G1 X134.447 Y108.583 E.00774
G1 X133.979 Y108.74 E.01547
G1 X133.552 Y108.987 E.01547
G1 X133.188 Y109.307 E.01519
G1 X133.023 Y109.503 E.00803
G1 X132.884 Y109.707 E.00774
G1 X132.673 Y110.143 E.01521
G1 X132.549 Y110.621 E.01548
G1 X132.52 Y111.013 E.01233
G1 X132.569 Y111.489 E.015
G1 X132.714 Y111.961 E.01547
G1 X132.949 Y112.394 E.01547
G1 X133.266 Y112.773 E.01547
G1 X133.651 Y113.081 E.01547
G1 X134.09 Y113.307 E.01547
G1 X134.564 Y113.441 E.01547
G1 X135.05 Y113.479 E.01528
G1 X135.441 Y113.44 E.01232
G1 X135.915 Y113.305 E.01547
G1 X136.347 Y113.083 E.01521
G1 X136.547 Y112.939 E.00773
G1 X136.738 Y112.769 E.00801
G1 X137.048 Y112.398 E.01516
G1 X137.284 Y111.966 E.01544
G1 X137.43 Y111.496 E.01544
G1 X137.467 Y111.252 E.00773
G1 X137.48 Y110.994 E.0081
G1 X137.43 Y110.503 E.01547
G1 X137.283 Y110.032 E.01547
G1 X137.047 Y109.599 E.01547
G1 X136.737 Y109.229 E.01513
G1 X136.352 Y108.921 E.01548
G1 X135.913 Y108.694 E.01548
G1 X135.438 Y108.559 E.01548
G1 X135.003 Y108.521 E.01371
M204 S1000
;WIPE_START
G1 F8640
G1 X135.438 Y108.559 E-.10096
G1 X135.913 Y108.694 E-.11398
G1 X136.352 Y108.921 E-.11398
G1 X136.737 Y109.229 E-.11398
G1 X137.047 Y109.599 E-.11141
G1 X137.283 Y110.032 E-.11393
G1 X137.401 Y110.412 E-.09177
;WIPE_END
G1 E-.04 F2100
G1 Z.6 F720
G1 X134.95 Y96.521 F10800
G1 Z.2 F720
G1 E.8 F2100
M204 S800
G1 F1200
G1 X134.558 Y96.56 E.01233
G1 X134.084 Y96.696 E.01548
G1 X133.651 Y96.919 E.01527
G1 X133.451 Y97.063 E.00774
G1 X133.261 Y97.232 E.00796
G1 X132.949 Y97.606 E.01525
G1 X132.714 Y98.039 E.01547
G1 X132.569 Y98.511 E.01547
G1 X132.532 Y98.755 E.00775
G1 X132.52 Y99.01 E.00799
G1 X132.569 Y99.493 E.01522
G1 X132.715 Y99.964 E.01547
G1 X132.951 Y100.397 E.01547
G1 X133.268 Y100.775 E.01547
G1 X133.654 Y101.083 E.01547
G1 X134.093 Y101.308 E.01547
G1 X134.568 Y101.442 E.01547
G1 X135.06 Y101.479 E.01547
G1 X135.549 Y101.418 E.01547
G1 X136.017 Y101.262 E.01547
G1 X136.445 Y101.016 E.01547
G1 X136.807 Y100.698 E.01511
G1 X137.053 Y100.392 E.01233
G1 X137.288 Y99.957 E.01548
G1 X137.432 Y99.485 E.01548
G1 X137.48 Y98.994 E.01547
G1 X137.43 Y98.504 E.01544
G1 X137.284 Y98.034 E.01544
G1 X137.048 Y97.602 E.01544
G1 X136.738 Y97.231 E.01516
G1 X136.547 Y97.061 E.00801
G1 X136.347 Y96.917 E.00773
G1 X135.915 Y96.695 E.01521
G1 X135.441 Y96.56 E.01546
G1 X135.006 Y96.521 E.01369
M204 S1000
G1 X114.95 Y96.521 F10800
M204 S800
G1 F1200
G1 X114.559 Y96.56 E.01232
G1 X114.085 Y96.695 E.01547
G1 X113.653 Y96.917 E.01521
G1 X113.453 Y97.061 E.00773
G1 X113.262 Y97.231 E.00801
G1 X112.952 Y97.602 E.01516
G1 X112.716 Y98.034 E.01544
G1 X112.57 Y98.504 E.01544
G1 X112.533 Y98.748 E.00773
G1 X112.52 Y99.006 E.0081
G1 X112.57 Y99.497 E.01549
G1 X112.717 Y99.969 E.01548
G1 X112.954 Y100.402 E.01548
G1 X113.273 Y100.78 E.01548
G1 X113.659 Y101.086 E.01548
G1 X114.1 Y101.311 E.01549
G1 X114.575 Y101.443 E.01548
G1 X115.056 Y101.479 E.01511
G1 X115.546 Y101.419 E.01548
G1 X116.015 Y101.263 E.01549
G1 X116.434 Y101.023 E.01514
G1 X116.736 Y100.771 E.01234
G1 X117.052 Y100.392 E.01549
G1 X117.288 Y99.958 E.01548
G1 X117.432 Y99.486 E.01549
G1 X117.48 Y98.994 E.01548
G1 X117.43 Y98.504 E.01544
G1 X117.284 Y98.034 E.01544
G1 X117.048 Y97.602 E.01544
G1 X116.738 Y97.231 E.01516
G1 X116.547 Y97.061 E.00801
G1 X116.347 Y96.917 E.00773
G1 X115.915 Y96.695 E.01521
G1 X115.441 Y96.56 E.01546
G1 X115.006 Y96.521 E.01369
M204 S1000
;WIPE_START
G1 F8640
G1 X115.441 Y96.56 E-.10085
G1 X115.915 Y96.695 E-.11388
G1 X116.347 Y96.917 E-.112
G1 X116.547 Y97.061 E-.05692
G1 X116.738 Y97.231 E-.05898
G1 X117.048 Y97.602 E-.11165
G1 X117.284 Y98.034 E-.11371
G1 X117.402 Y98.414 E-.092
;WIPE_END
G1 E-.04 F2100
G1 Z.6 F720
G1 X141.34 Y114.77 F10800
G1 Z.2 F720
G1 E.8 F2100
M204 S800
G1 F1200
G1 X141.34 Y95.4 E.60735
G1 X140.921 Y95.4 E.01314
G1 X140.921 Y114.6 E.60203
G1 X140.502 Y114.6 E.01314
G1 X140.502 Y95.4 E.60203
G1 X140.083 Y95.4 E.01314
G1 X140.083 Y114.6 E.60203
G1 X139.664 Y114.6 E.01314
G1 X139.664 Y95.4 E.60203
G1 X139.258 Y95.4 E.01275
G1 X139.258 Y93.071 E.07301
G1 X139.245 Y116.929 E.74805
G1 X138.826 Y116.929 E.01314
G1 X138.826 Y93.071 E.74805
G1 X138.407 Y93.071 E.01314
G1 X138.407 Y116.929 E.74805
G1 X137.988 Y116.929 E.01314
G1 X137.988 Y93.071 E.74805
G1 X137.569 Y93.071 E.01314
G1 X137.569 Y97.841 E.14955
G1 X137.404 Y97.526 E.01114
M73 Q1 S76
G1 X137.15 Y97.177 E.01354
G1 X137.15 Y93.071 E.12873
G1 X136.731 Y93.071 E.01314
G1 X136.731 Y96.775 E.11614
M73 P1 R76
G1 X136.312 Y96.505 E.01563
G1 X136.312 Y93.071 E.10767
G1 X135.893 Y93.071 E.01314
G1 X135.893 Y96.326 E.10206
G1 X135.474 Y96.221 E.01354
G1 X135.474 Y93.071 E.09876
G1 X135.055 Y93.071 E.01314
G1 X135.055 Y96.181 E.09752
G1 X134.636 Y96.204 E.01316
G1 X134.636 Y93.071 E.09824
G1 X134.217 Y93.071 E.01314
G1 X134.217 Y96.292 E.10098
G1 X133.799 Y96.45 E.01404
G1 X133.799 Y93.071 E.10594
G1 X133.38 Y93.071 E.01314
G1 X133.38 Y96.693 E.11357
G1 X133.142 Y96.879 E.00945
G1 X132.961 Y97.054 E.00791
G1 X132.961 Y93.071 E.12488
G1 X132.542 Y93.071 E.01314
G1 X132.542 Y97.621 E.14265
G1 X132.396 Y97.92 E.01043
G1 X132.271 Y98.292 E.01232
G1 X132.21 Y98.595 E.00969
G1 X132.181 Y98.98 E.01209
G1 X132.196 Y99.296 E.00992
G1 X132.268 Y99.696 E.01276
G1 X132.394 Y100.076 E.01253
G1 X132.542 Y100.379 E.01059
G1 X132.542 Y109.621 E.28975
G1 X132.752 Y109.298 E.01207
G1 X132.961 Y109.054 E.01007
G1 X132.961 Y100.946 E.25422
G1 X133.145 Y101.123 E.00801
G1 X133.38 Y101.307 E.00934
G1 X133.38 Y108.693 E.2316
G1 X133.799 Y108.45 E.01519
G1 X133.799 Y101.55 E.21634
G1 X134.217 Y101.708 E.01404
G1 X134.217 Y108.292 E.20641
G1 X134.636 Y108.204 E.01342
G1 X134.636 Y101.796 E.20093
G1 X135.055 Y101.819 E.01316
G1 X135.055 Y108.181 E.19949
G1 X135.474 Y108.221 E.0132
G1 X135.474 Y101.779 E.20198
G1 X135.893 Y101.674 E.01354
G1 X135.893 Y108.326 E.20856
G1 X136.312 Y108.505 E.01429
G1 X136.312 Y101.495 E.2198
G1 X136.731 Y101.225 E.01563
G1 X136.731 Y108.775 E.23675
G1 X136.963 Y108.977 E.00963
G1 X137.15 Y109.177 E.00858
